X:1
T:AFN: 22 - MWYNEN MERCH - The Maiden's Melody
C:Composer : trad. Dm (drop D)
N:Remarks : Bennett, AFN: 22
Q:1/4=120
V:1
M:2/4
L:1/16
K:Dm
A4 |A2d2 d4 |^c2d2 A3G |F4 E3F |G2G2 G4 |D2E2 F2G2 |HA4 z4 |A3G |F2G2 A2B2 |c2c2 c4 |HA4 A3G |
F2G2 A2B2 |c2c2 B4 |HA4 z4 |A4 |A2B2 c2A2 |f2e2 d2^c2 |d4 A4 |B2d2 A3G |F2A2 G2E2 |D2E2 F2G2 |
A2d2 ^c2d2 |d4 A4 |B2d2 A3G |F2A2 G2E2 |HD4 z4 |]
